packages/assets/static/images/icons/ambulance.svg

<svg width="24" height="24" viewBox="0 0 24 24" xmlns="http://www.w3.org/2000/svg">
<path d="M6.75037 10.1221C6.75037 9.92316 6.82938 9.73239 6.97004 9.59174C7.11069 9.45109 7.30145 9.37207 7.50037 9.37207H9.00037V7.87207C9.00037 7.67316 9.07938 7.48239 9.22004 7.34174C9.36069 7.20109 9.55145 7.12207 9.75037 7.12207C9.94928 7.12207 10.14 7.20109 10.2807 7.34174C10.4213 7.48239 10.5004 7.67316 10.5004 7.87207V9.37207H12.0004C12.1993 9.37207 12.39 9.45109 12.5307 9.59174C12.6713 9.73239 12.7504 9.92316 12.7504 10.1221C12.7504 10.321 12.6713 10.5117 12.5307 10.6524C12.39 10.7931 12.1993 10.8721 12.0004 10.8721H10.5004V12.3721C10.5004 12.571 10.4213 12.7617 10.2807 12.9024C10.14 13.0431 9.94928 13.1221 9.75037 13.1221C9.55145 13.1221 9.36069 13.0431 9.22004 12.9024C9.07938 12.7617 9.00037 12.571 9.00037 12.3721V10.8721H7.50037C7.30145 10.8721 7.11069 10.7931 6.97004 10.6524C6.82938 10.5117 6.75037 10.321 6.75037 10.1221ZM23.2504 10.1221V16.1221C23.2504 16.5199 23.0923 16.9014 22.811 17.1827C22.5297 17.464 22.1482 17.6221 21.7504 17.6221H20.1566C19.9914 18.2674 19.6161 18.8393 19.0899 19.2478C18.5637 19.6563 17.9165 19.878 17.2504 19.878C16.5842 19.878 15.9371 19.6563 15.4108 19.2478C14.8846 18.8393 14.5093 18.2674 14.3441 17.6221H9.65662C9.49139 18.2674 9.11609 18.8393 8.58988 19.2478C8.06368 19.6563 7.41649 19.878 6.75037 19.878C6.08424 19.878 5.43706 19.6563 4.91085 19.2478C4.38464 18.8393 4.00934 18.2674 3.84412 17.6221H2.25037C1.85254 17.6221 1.47101 17.464 1.18971 17.1827C0.908401 16.9014 0.750366 16.5199 0.750366 16.1221V5.62207C0.750366 5.22425 0.908401 4.84271 1.18971 4.56141C1.47101 4.28011 1.85254 4.12207 2.25037 4.12207H16.5004C16.6993 4.12207 16.89 4.20109 17.0307 4.34174C17.1713 4.48239 17.2504 4.67316 17.2504 4.87207V5.62207H20.4922C20.7923 5.62111 21.0857 5.71058 21.3342 5.87881C21.5827 6.04704 21.7748 6.28622 21.8854 6.5652L23.1979 9.84645C23.2327 9.93415 23.2505 10.0277 23.2504 10.1221ZM17.2504 7.12207V9.37207H21.3922L20.4922 7.12207H17.2504ZM2.25037 16.1221H3.84412C4.00934 15.4768 4.38464 14.9048 4.91085 14.4963C5.43706 14.0879 6.08424 13.8662 6.75037 13.8662C7.41649 13.8662 8.06368 14.0879 8.58988 14.4963C9.11609 14.9048 9.49139 15.4768 9.65662 16.1221H14.3441C14.4447 15.7366 14.6208 15.375 14.8622 15.0582C15.1036 14.7413 15.4055 14.4755 15.7504 14.2761V5.62207H2.25037V16.1221ZM8.25037 16.8721C8.25037 16.5754 8.16239 16.2854 7.99757 16.0387C7.83275 15.792 7.59848 15.5998 7.32439 15.4863C7.0503 15.3727 6.7487 15.343 6.45773 15.4009C6.16676 15.4588 5.89949 15.6016 5.68971 15.8114C5.47993 16.0212 5.33707 16.2885 5.27919 16.5794C5.22131 16.8704 5.25102 17.172 5.36455 17.4461C5.47808 17.7202 5.67034 17.9545 5.91701 18.1193C6.16368 18.2841 6.45369 18.3721 6.75037 18.3721C7.14819 18.3721 7.52972 18.214 7.81103 17.9327C8.09233 17.6514 8.25037 17.2699 8.25037 16.8721ZM18.7504 16.8721C18.7504 16.5754 18.6624 16.2854 18.4976 16.0387C18.3327 15.792 18.0985 15.5998 17.8244 15.4863C17.5503 15.3727 17.2487 15.343 16.9577 15.4009C16.6668 15.4588 16.3995 15.6016 16.1897 15.8114C15.9799 16.0212 15.8371 16.2885 15.7792 16.5794C15.7213 16.8704 15.751 17.172 15.8645 17.4461C15.9781 17.7202 16.1703 17.9545 16.417 18.1193C16.6637 18.2841 16.9537 18.3721 17.2504 18.3721C17.6482 18.3721 18.0297 18.214 18.311 17.9327C18.5923 17.6514 18.7504 17.2699 18.7504 16.8721ZM21.7504 16.1221V10.8721H17.2504V13.8721C17.9155 13.8727 18.5616 14.0939 19.0875 14.5011C19.6134 14.9082 19.9894 15.4783 20.1566 16.1221H21.7504Z"/>
</svg>

<svg viewBox="0 0 24 24" xmlns="http://www.w3.org/2000/svg" aria-hidden="true" fill="currentColor"><path d="M6.75 10.122a.75.75 0 0 1 .75-.75H9v-1.5a.75.75 0 1 1 1.5 0v1.5H12a.75.75 0 0 1 0 1.5h-1.5v1.5a.75.75 0 0 1-1.5 0v-1.5H7.5a.75.75 0 0 1-.75-.75m16.5 0v6a1.5 1.5 0 0 1-1.5 1.5h-1.593a3 3 0 0 1-5.813 0H9.657a3 3 0 0 1-5.813 0H2.25a1.5 1.5 0 0 1-1.5-1.5v-10.5a1.5 1.5 0 0 1 1.5-1.5H16.5a.75.75 0 0 1 .75.75v.75h3.242a1.49 1.49 0 0 1 1.393.943l1.313 3.281a.8.8 0 0 1 .052.276m-6-3v2.25h4.142l-.9-2.25zm-15 9h1.594a3 3 0 0 1 5.813 0h4.687a3 3 0 0 1 1.406-1.846V5.622H2.25zm6 .75a1.5 1.5 0 1 0-3 0 1.5 1.5 0 0 0 3 0m10.5 0a1.5 1.5 0 1 0-3 0 1.5 1.5 0 0 0 3 0m3-.75v-5.25h-4.5v3a3.005 3.005 0 0 1 2.907 2.25z"/></svg>
